X:3
T:Bob Jordan (air) 
B:GEI.087
F:file ID gei/03bob_j
Z:bill@capeirish.com
N:Sounds like Carolan but not present under this 
name in the section of O'Neill's "Music of Ireland" 
devoted to that composer's tunes. It's not in the
Donal O Sullivan Carolan collection either.
M:C
L:1/8
Q:160
K:A
e2ce f2e2|c2B2 A2FE|F2A2 A2Bc|d2c2 B2z2|
"5"c2e2 f2e2|ecBA a2A2|abc'b bafe|f6 e2|
"9"fgaf efec|BABc ecef|e2c>B A2cB|AFB2 B2AB|
"13"cBAG ABcA|BAFE FGAF|EFEC ECB,A,|C4 A4 ||
%
"17"E2B,C EFCF|ECB,A, A2A,2|ABcB AEBA|F4 f2f2|
"21"(3ecB AB c2a2|(3ecB AB c2a2|b2af efec|B6 cA|
"25"F2A2 ABAF|EFGB cBcA|BABc ecec|A2f2 f2ed|
"29"[E4A4c4]z4|[E4G4B4]z4|fecB AGAE|F2[A2D2] [C4A4] |]

